dist/img/menu/menu-icon7.svg

<svg width="23" height="23" viewBox="0 0 23 23" fill="none" xmlns="http://www.w3.org/2000/svg">
<path fill-rule="evenodd" clip-rule="evenodd" d="M4.24633 0C3.80767 0 3.45179 0.355662 3.45179 0.794536C3.45179 1.06021 3.4558 1.32471 3.46313 1.58784H0.794536C0.355688 1.58784 0 1.94353 0 2.38238C0 5.29488 0.760956 8.04962 2.15041 10.1378C3.51025 12.1817 5.33017 13.3808 7.31456 13.5183C7.73097 13.9647 8.17069 14.336 8.62957 14.6276V17.2591H7.69829C6.30824 17.2591 5.17777 18.3898 5.17777 19.7797V20.7177C4.78815 20.7687 4.48742 21.1021 4.48742 21.5055C4.48742 21.9443 4.8431 22.3 5.28195 22.3H17.0182C17.4571 22.3 17.8128 21.9443 17.8128 21.5055C17.8128 21.1021 17.512 20.7687 17.1224 20.7177V19.7797C17.1224 18.3898 15.9919 17.2591 14.6019 17.2591H13.6706V14.6276C14.1295 14.3362 14.5694 13.9647 14.9858 13.5183C16.97 13.3808 18.7899 12.1817 20.1499 10.1378C21.5394 8.04962 22.3002 5.29487 22.3002 2.38238C22.3002 1.94353 21.9445 1.58784 21.5056 1.58784H18.837C18.8444 1.32471 18.8484 1.06021 18.8484 0.794536C18.8484 0.355662 18.4925 0 18.0538 0H4.24633ZM6.97911 10.2025C5.82483 7.89406 5.14694 4.86108 5.05238 1.58907H17.2478C17.1531 4.86109 16.4752 7.89423 15.3211 10.2025C14.9323 10.98 14.5083 11.6381 14.0602 12.1714C14.027 12.2038 13.9966 12.2392 13.9695 12.2772C13.5198 12.7919 13.0484 13.1793 12.5665 13.4354C12.5341 13.4491 12.5037 13.4649 12.4754 13.4815C12.04 13.6973 11.5962 13.8073 11.1501 13.8073C10.7042 13.8073 10.2607 13.6973 9.82546 13.482C9.79637 13.4647 9.76583 13.449 9.73362 13.4352C9.25158 13.1792 8.78023 12.7916 8.3304 12.2769C8.30344 12.2392 8.27339 12.204 8.24027 12.1715C7.79197 11.6382 7.36792 10.9801 6.97911 10.2025ZM3.47339 9.25758C2.38519 7.6223 1.73199 5.48761 1.60997 3.17691H3.55148C3.7956 6.08046 4.48513 8.76793 5.55784 10.9132C5.65858 11.1147 5.76204 11.3098 5.868 11.4985C4.98891 11.0603 4.1695 10.3039 3.47339 9.25758ZM16.7423 10.9132C17.815 8.76793 18.5044 6.08045 18.7487 3.17691H20.6902C20.5682 5.48761 19.915 7.62231 18.8268 9.2576C18.1307 10.3039 17.3113 11.0603 16.4322 11.4985C16.5381 11.3098 16.6416 11.1147 16.7423 10.9132ZM10.2186 17.2591V15.295C10.5245 15.3618 10.8354 15.3964 11.1501 15.3964C11.4648 15.3964 11.7756 15.3618 12.0815 15.295V17.2591H10.2186ZM6.76685 19.7797C6.76685 19.2663 7.18478 18.8482 7.69829 18.8482H14.6019C15.1154 18.8482 15.5333 19.2663 15.5333 19.7797V20.7111H6.76685V19.7797Z" fill="#BFC0C4"/>
</svg>

<svg width="23" height="23" fill="none" xmlns="http://www.w3.org/2000/svg"><path fill-rule="evenodd" clip-rule="evenodd" d="M4.246 0a.795.795 0 00-.794.795c0 .265.004.53.011.793H.795A.794.794 0 000 2.382c0 2.913.761 5.668 2.15 7.756 1.36 2.044 3.18 3.243 5.165 3.38.416.447.856.818 1.315 1.11v2.631h-.932c-1.39 0-2.52 1.13-2.52 2.52v.939a.795.795 0 00.104 1.582h11.736a.795.795 0 00.104-1.582v-.938c0-1.39-1.13-2.52-2.52-2.52h-.931v-2.632a6.786 6.786 0 001.315-1.11c1.984-.137 3.804-1.336 5.164-3.38 1.39-2.088 2.15-4.843 2.15-7.756a.795.795 0 00-.794-.794h-2.669c.007-.263.011-.528.011-.793A.795.795 0 0018.054 0H4.246zM6.98 10.203C5.825 7.894 5.147 4.86 5.052 1.588h12.196c-.095 3.272-.773 6.305-1.927 8.614-.389.777-.813 1.435-1.26 1.968a.784.784 0 00-.091.106c-.45.515-.922.902-1.404 1.158a2.965 2.965 0 01-1.416.372 2.969 2.969 0 01-1.416-.372c-.482-.256-.954-.643-1.404-1.158a.797.797 0 00-.09-.105c-.448-.534-.872-1.192-1.26-1.97zm-3.506-.945C2.385 7.622 1.732 5.488 1.61 3.177h1.941c.245 2.903.934 5.59 2.007 7.736.1.202.204.397.31.585-.88-.438-1.699-1.194-2.395-2.24zm13.27 1.655c1.072-2.145 1.761-4.833 2.006-7.736h1.941c-.122 2.31-.775 4.445-1.863 6.08-.696 1.047-1.516 1.803-2.395 2.242.106-.19.21-.384.31-.586zm-6.524 6.346v-1.964a4.357 4.357 0 001.863 0v1.964H10.22zm-3.452 2.52c0-.513.418-.93.931-.93h6.904c.513 0 .931.417.931.93v.932H6.767v-.931z" fill="#BFC0C4"/></svg>
